!!!SOCIAL_FUNCTION:	dance songs
!!!PDT:	1913
!!!OTL: No_167_The_Entire_World.krn
!!!REG: Great_Lakes
!!!LANG: Non-Tone
!!!LING_GROUP: Algonquin
**kern	**kern
*staff2	*staff1
*clefF4	*clefG2
*k[b-e-a-d-g-]	*k[b-e-a-d-g-]
*M3/4	*M3/4
4.r	16r
.	16f/LK
.	8.f/
.	16f/Jk
=1	=1
12GG-^/	2g-/
12r	.
12GG-/	.
12GG-^/	.
12r	.
12GG-/	.
12GG-^/	8.f/L
12r	.
12GG-/	.
.	16d-/Jk
=2||	=2||
*M4/4	*M4/4
1r	[2f/
.	8.f/L]
.	16f/K
.	8.f/
.	16f/Jk
=3	=3
1r	2g-/
.	8.f/L
.	16d-/Jk
.	12f/L
.	12f/
.	12d-/J
*	*clefF4
=4	=4
1r	2B-\
.	8.F\L
.	16F\K
.	8.F\
.	16F\Jk
=5	=5
*M3/4	*M3/4
2.r	2G-\
.	8.F\L
.	16D-\Jk
=6	=6
2.r	[2F\
.	8.F\L]
.	16F\Jk
=7||	=7||
*M2/4	*M2/4
2r	4G-\
.	8.B-\L
.	16G-\Jk
=8||	=8||
*M3/4	*M3/4
2.r	2F\
.	8.F\L
.	16D-\Jk
=9||	=9||
*M4/4	*M4/4
1r	2F\
.	8F\L
.	[8D-\J
.	4D-\]
=10||	=10||
*M3/4	*M3/4
2.r	4BB-/
.	4.BB-/
.	8BB-/
=11	=11
2.r	2BB-/
.	8.d-\L
.	16d-\Jk
=12	=12
2.r	4f\
.	2f\
=13||	=13||
*M2/4	*M2/4
2r	8f\L
.	8d-\J
.	8f\L
.	8d-\J
=14||	=14||
*M3/4	*M3/4
2.r	8B-\L
.	8B-\J
.	8.G-\L
.	16F\Jk
.	8.F\L
.	16F\Jk
=15	=15
2.r	2G-\
.	8.F\L
.	16D-\Jk
=16	=16
2.r	[2F\
.	8.F\L]
.	16G-\Jk
=17||	=17||
*M2/4	*M2/4
2r	4G-\
.	8.B-\L
.	16G-\Jk
=18||	=18||
*M3/4	*M3/4
2.r	2F\
.	8F\L
.	8D-\J
=19||	=19||
*M2/4	*M2/4
2r	2F\
=20	=20
2r	16F\LK
.	[8.D-\J
.	4D-\]
=21	=21
2r	4BB-/
.	[4BB-/
=22	=22
2r	4BB-/]
.	4BB-/
==	==
*-	*-
